assets/icons/qvision/panorama_horizontal.svg

<svg xmlns="http://www.w3.org/2000/svg" height="24" viewBox="0 0 24 24" width="24"><path d="M0 0h24v24H0z" fill="none"/><path d="M20 6.54v10.91c-2.6-.77-5.28-1.16-8-1.16-2.72 0-5.4.39-8 1.16V6.54c2.6.77 5.28 1.16 8 1.16 2.72.01 5.4-.38 8-1.16M21.43 4c-.1 0-.2.02-.31.06C18.18 5.16 15.09 5.7 12 5.7c-3.09 0-6.18-.55-9.12-1.64-.11-.04-.22-.06-.31-.06-.34 0-.57.23-.57.63v14.75c0 .39.23.62.57.62.1 0 .2-.02.31-.06 2.94-1.1 6.03-1.64 9.12-1.64 3.09 0 6.18.55 9.12 1.64.11.04.21.06.31.06.33 0 .57-.23.57-.63V4.63c0-.4-.24-.63-.57-.63z"/></svg>

<svg width="24" height="24" viewBox="0 0 24 24" fill="none" xmlns="http://www.w3.org/2000/svg">
<g clip-path="url(#clip0_147_3635)">
<path d="M20 6.54V17.45C17.4 16.68 14.72 16.29 12 16.29C9.28 16.29 6.6 16.68 4 17.45V6.54C6.6 7.31 9.28 7.7 12 7.7C14.72 7.71 17.4 7.32 20 6.54ZM21.43 4C21.33 4 21.23 4.02 21.12 4.06C18.18 5.16 15.09 5.7 12 5.7C8.91 5.7 5.82 5.15 2.88 4.06C2.77 4.02 2.66 4 2.57 4C2.23 4 2 4.23 2 4.63V19.38C2 19.77 2.23 20 2.57 20C2.67 20 2.77 19.98 2.88 19.94C5.82 18.84 8.91 18.3 12 18.3C15.09 18.3 18.18 18.85 21.12 19.94C21.23 19.98 21.33 20 21.43 20C21.76 20 22 19.77 22 19.37V4.63C22 4.23 21.76 4 21.43 4Z" fill="#323232"/>
</g>
<defs>
<clipPath id="clip0_147_3635">
<rect width="24" height="24" fill="white"/>
</clipPath>
</defs>
</svg>
